X:758
M:C|
L:1/8
K:E Minor
e|gfeb gebe|feda fdad|gfeb gebe|dBAF E/E/E ~Ee|gfeb gebe|fdad bdad|
gfe^d egfe|dBAF E/E/E ~E||

